X:1
T: Miss Douglas Moncrieff
C:
R:Reel
Q: 232
K:G
M:4/4
L:1/8
|:BG dG BG G2|cA EG FD D2|BG dG BG G2|cA FD G2 Gc|
BG dG BG G2|cA EG FD2c|BG dG gd BG|cA FD G2 Gc|
Bc dg ec g2|BG dG FD D2|Bc dg ef ge|dB cA G2 Gc|
Bc dg ec g2|BG AG FD D2|Bd gb ce ag|fd ef g2 g2:|
